X:1
T:O Mensch, bedenck
T:Joachim a Burck
T:Source : Breitkopf & Härtel---Leipzig---R.Eitner---1898. First print : 20 Deutsche Liedlein zu 4Stimmen---Erfurt---G.Baumann---1575. Editor : André Vierendeels (07/11/17). Notes : Original clefs : C1, C3, C4, F4 Editorial accidentals above the staff Text by Ludwig Helmbold ( Christeliche Reimen)
T:O Mensch, bedenck
T:©
T:©
T:©
T:©
T:©
C:Joachim a Burck
Z:©
%%score [ 1 [ 2 3 ] 4 ]
L:1/8
Q:1/4=100
M:4/4
K:C
V:1 treble nm="Soprano" snm="S"
V:2 treble-8 nm="Tenor 1" snm="T 1"
V:3 treble-8 nm="Tenor 2" snm="T 2"
V:4 bass nm="Bass" snm="B"
V:1
 G8 | G8 | G8- | G4 c4- | c2 BA B2 AB | c4 z4 | z2 G2 F2 E2 | F4 G2 d2- | d2 c4 B2 | A4 G4 | %10
w: O|Mensch,|O|_ Mensch|_ _ _ _ _ _||be- denck dein|An- fang, be-|* denck dein|An- fang|
 z4 z2 G2- | G2 F4 E2 | D4 C4 | z4 z2 c2- | c2 B2 e3 d | cB A2 G4 | z2 c4 c2 | G4 E4 | z4 G4- | %19
w: und|_ das _|En- de,|und|_ das En- *|* * * de,|und das|En- de,|und|
 G2 E4 A2- | AGFE FD G2- | G2 FE F4 | G8 | z8 | z2 d4 B2- | B2 c2 c2 d2- | d2 d2 d4 | e4 d4 | %28
w: _ das En-|||de,||vom Teu-|* * fel dich,|_ vom Teu-|fel dich|
 z2 A2 c4- | c2 B4 A2- | A2 G2 A4 | A4 G4 | G6 ^F2 | G8 | G4 z2 G2 | A2 B2 c4- | c2 B2 A4 | G8 | %38
w: zum Herrn|_ Chri- sto|_ wen- de,|zum Herrn|Chri- sto|wen-|de, der|wird dir al-|* les ge-|ben,|
 z4 G4 | A2 B2 c4- | c2 B2 A4 | G4 z2 G2 | A4 D4 | ^F4 G2 A2 | G4 z2 A2 | B2 c2 d4- | d2 ^c2 d4 | %47
w: der|wird dir al-|* les ge-|ben, der|wird dir|al- les ge-|ben, der|wird dir al-|* les ge-|
 B4 z2 c2 | c4 A2 A2- | A2 d2 d2 B2- | B2 G4 G2 | c4 A4 | A2 d3 c BA | G2 A4 G2- |"^#" G2 FE F4 | %55
w: ben, in|die- sem und|_ je- nem Le-|* ben, in|die- sem|und je- * * *|* nem Le-||
 G2 G2 G2 G2 | G2 c4 B2 | G8 | G8 |] %59
w: ben, in die- sem|und je- nem|Le-|ben.|
V:2
 d8 | e4 e4- | e2 dc d4 | e2 f2 g2 a2 | g4 z2 g2 | f2 e4 d2 | A2 G2 d2 e2 | d2 d2 e2 d2 | %8
w: O|Mensch, O|_ _ _ _|Mensch, _ _ _|_ be-|denck dein An-|fang, be- denck dein|An- fang, O Mensch,|
 e2 f2 g3 f | e4 d4 | d4 c4 | _B2 A4 G2 | z2 g4 e2- | e2 a3 g fe | d4 c4 | e6 d2 | cB A2 e2 e2- | %17
w: be- denck dein _|_ An-|fang und|das En- de,|und das|_ En- * * *|* de,|und das|En- * * de, und|
 e2 d2 cBcd | ed c3 B B2 | B2 B4 B2 | fg a2 d2 e2- | e2 c2 d4- | d4 B4 | z2 G4 A2- | A2 B2 G2 g2 | %25
w: _ das En- * * *||de, und das|En- * * de, und|_ das En-|* de,|vom Teu-|* fel dich vom|
 e4 f4 | g2 ^f2 g4- | g2 g2 ^f4 | z2 ^f2 g4 | g4 f2 e2- | ed d3 ^c c2 | d6 d2 | e2 c4 c2 | d8 | %34
w: Teu- fel|dich, vom Teu-|* fel dich|zum Herrn|Chri- sto wen-||de, zum|Herrn Chri- sto|wen-|
 e8 | d4 e2 f2 | g4 f4 | e4 d4 | d4 c2 B2 | d4 c2 e2 | d4 z4 | z2 G2 A2 B2 | c6 B2 | A4 G4 | %44
w: de,|der wird dir|al- les|ge- ben,|der wird dir|al- les ge-|ben,|der wird dir|al- les|ge- ben,|
 d4 e2 f2 | g6 f2 | e4 d4 | z2 g2 g4 | e4 f2 f2- | f2 f2 d2 g2- | g2 e2 e4 | e2 c2 f4 | %52
w: der wird dir|all- les|ge- ben|in die-|sem, in die-|* sem, und je-|* nem Le-|ben in die-|
 f2 f2 f2 d2 | d8 | d4 z2 d2- | d2 d2 e2 e2- | e2 g4 g2 | e8 | d8 |] %59
w: sem und je- nem|Le-|ben, in|_ die- sem und|_ je- nem|Le-|ben|
V:3
 G8 | c4 c4- | c2 BA B4 | c2 d2 e2 dc | d8 | z2 c2 c2 B2 | c4 A2 c2 | _B2 A2 c2 G2 | z2 A2 d2 d2- | %9
w: O|Mensch, O|_ _ _ _|Mensch, _ _ _ _|_|be- denck dein|An- fang, be-|denck dein An- fang,|O Mensch, be-|
 d2 c4 B2 | A4 G4 | z4 z2 c2- | c2 B2 e3 d | c4 A4 | z8 | z2 c4 B2 | e3 d cB A2 | G2 G4 G2- | %18
w: * denck dein|An- fang|und|_ das En- *|* de,||und das|En- * * * *|de, und das|
 G2 A2 D2 d2 | edcB AGFE | D2 dc AB c2- | cBAG A4 | G4 z2 d2 | B4 c4 | d4 z4 | z4 z2 d2 | %26
w: _ En- de, und|das _ _ _ _ _ _ _|_ En- * * * *||de, vom|Teu- fel|_|vom|
 B2 A2 B2 d2 | c2 c2 A4 | z2 d2 e2 e2- | e2 d4 ^c2 | d4 e4 | f4 d2 B2- | B2 e3 d c2- | c2 BA BcdB | %34
w: Teu- fel dich, vom|Teu- fel dich|zum Herrn Chri-|* sto wen-|de, zum|Herrn Chri- sto|_ wen- * *||
 c3 B A2 G2 | z8 | G4 A2 B2 | c4 B4 | A4 G4 | z8 | z2 G2 c2 d2 | edcB A2 G2- | G2 ^F2 G2 d2 | %43
w: * * * de,||der wird dir|al- les|ge- ben,||der wird dir|al- * * * * les|_ ge- ben, der|
 d2 d2 c4- | c2 B2 A4 | G4 A4- | A4 B4 | G2 d2 e4 | c4 z2 c2 | d4 B2 B2 | G2 G2 c4 | A4 z2 c2 | %52
w: wird dir al-|* les ge-|ben in|_ die-|sem, in die-|sem, in|die- sem und|je- nem Le-|ben, in|
 d2 A2 A2 B2- | B2 A2 B4- | B2 AG A4 | G2 B2 B2 B2 | B2 e4 d2 | c8 | B8 |] %59
w: die- sem und je-|* nem Le-||ben, in die- sem|und je- nem|Le-|ben.|
V:4
 z8 | z4 C,4 | G,4 G,,4 | C,6 C,2 | G,4 G,4 | A,4 G,4 | F,2 E,2 D,2 C,2 | D,4 C,2 B,,2 | %8
w: |O|Mensch, O|Mensch, be-|denck dein|An- fang,|O Mensch, be- denck|dein _ _|
 A,,4 G,,4 | z4 z2 G,2- | G,2 F,4 E,2 | D,4 C,4 | G,4 E,2 A,2- | A,G,F,E, F,4 | G,4 z4 | z8 | %16
w: An- fang|und|_ das _|En- de,|und das En-||de,||
 z4 C,4- | C,2 B,,2 E,3 D, | C,B,, A,,2 G,,4 | z8 | z2 D,4 C,2 | E,4 D,4 | z4 G,4- | G,2 E,4 F,2- | %24
w: und|_ das En- *|* * * de,||und das|En- de,|vom|_ Teu- fel|
 F,2 G,4 z2 | z8 | z2 D,2 B,,4 | C,4 D,4 | z2 D,2 C,4 | G,4 A,4 | _B,4 A,4 | D,4 G,4 | E,4 A,4 | %33
w: dich, _||vom Teu-|fel dich|zum Herr|Chri- sto|wen- de,|zum Herrn|Chri- sto|
 G,8 | C,8 | z8 | z4 D,4 | E,2 F,2 G,4- | G,2 F,2 E,4 | D,4 z4 | G,,4 A,,2 B,,2 | C,6 B,,2 | %42
w: wen-|de,||der|wird dir al-|* les ge-|ben,|der wird dir|al- les|
 A,,4 G,,4 | D,4 E,2 F,2 | G,6 F,2 | E,4 D,4 | z4 z2 G,2 | G,4 C,4 | z2 A,2 F,4 | %49
w: ge- ben,|der wird dir|al- les|ge- ben,|in|die- sem,|in die-|
"^#" D,2 D,2 G,2 G,2 | E,4 C,4 | z2 F,2 F,4 | D,4 D,2 G,2- | G,2 ^F,2 G,4 | D,8 | z2 G,2 E,2 E,2 | %56
w: sem und je- nem|Le- ben,|in die-|sem und je-|* nem Le-|ben,|in die- sem|
 E,2 C,4 G,2 | C,8 | G,,8 |] %59
w: und je- nem|Le-|ben.|

